flags/language/es-mx.svg

<svg width="512" height="512" viewBox="0 0 512 512" fill="none" xmlns="http://www.w3.org/2000/svg">
<path d="M512 128V384L0 384L1.11901e-05 128L512 128Z" fill="var(--flag-palette-yellow, #ffda44)"/>
<path d="M512 368V512L0 512L6.29444e-06 368L512 368Z" fill="var(--flag-palette-bright-red, #d80027)"/>
<path d="M512 -3.10255e-05V144L0 144L6.29444e-06 -5.34058e-05L512 -3.10255e-05Z" fill="var(--flag-palette-bright-red, #d80027)"/>
<path d="M144 304H128V224H144V304ZM272 304H288V224H272V304Z" fill="var(--flag-palette-white, #eeeeee)"/>
<path d="M122 248C120.939 248 119.922 248.421 119.172 249.172C118.421 249.922 118 250.939 118 252C118 253.061 118.421 254.078 119.172 254.828C119.922 255.579 120.939 256 122 256H294C295.061 256 296.078 255.579 296.828 254.828C297.579 254.078 298 253.061 298 252C298 250.939 297.579 249.922 296.828 249.172C296.078 248.421 295.061 248 294 248H122ZM122 272C120.939 272 119.922 272.421 119.172 273.172C118.421 273.922 118 274.939 118 276C118 277.061 118.421 278.078 119.172 278.828C119.922 279.579 120.939 280 122 280H150C151.061 280 152.078 279.579 152.828 278.828C153.579 278.078 154 277.061 154 276C154 274.939 153.579 273.922 152.828 273.172C152.078 272.421 151.061 272 150 272H122ZM266 272C264.939 272 263.922 272.421 263.172 273.172C262.421 273.922 262 274.939 262 276C262 277.061 262.421 278.078 263.172 278.828C263.922 279.579 264.939 280 266 280H294C295.061 280 296.078 279.579 296.828 278.828C297.579 278.078 298 277.061 298 276C298 274.939 297.579 273.922 296.828 273.172C296.078 272.421 295.061 272 294 272H266Z" fill="var(--flag-palette-bright-red, #d80027)"/>
<path fill-rule="evenodd" clip-rule="evenodd" d="M196 168C189 168 183 173 181 179L176 178C167 178 160 185 160 194C160 203 167 210 176 210C183 210 189 206 191 199C193.916 200.052 197.076 200.234 200.094 199.524C203.112 198.814 205.859 197.242 208 195C210.141 197.242 212.888 198.814 215.906 199.524C218.924 200.234 222.084 200.052 225 199C225.97 202.029 227.821 204.7 230.317 206.672C232.812 208.644 235.838 209.827 239.009 210.071C242.181 210.315 245.352 209.609 248.12 208.042C250.888 206.475 253.126 204.119 254.548 201.274C255.97 198.429 256.513 195.225 256.106 192.071C255.699 188.917 254.361 185.955 252.263 183.565C250.165 181.174 247.402 179.463 244.327 178.65C241.253 177.837 238.005 177.959 235 179C234.036 176.407 232.415 174.109 230.298 172.33C228.18 170.55 225.637 169.35 222.917 168.846C220.198 168.342 217.393 168.552 214.779 169.456C212.164 170.359 209.829 171.925 208 174C205 170 201 168 196 168ZM196 176C201 176 204 180 204 184C204 189 201 192 196 192C192 192 188 189 188 184C188 180 192 176 196 176ZM220 176C225 176 228 180 228 184C228 189 225 192 220 192C216 192 212 189 212 184C212 180 216 176 220 176ZM176 186L180 187L184 195C184 199 180 202 176 202C172 202 168 199 168 194C168 190 172 186 176 186ZM240 186C245 186 248 190 248 194C248 199 245 202 240 202C236 202 232 199 232 195L236 187L240 186ZM208 328C234.51 328 256 313.673 256 296C256 286.442 249.715 277.864 239.75 272H256V224H208V264C181.49 264 160 278.327 160 296C160 313.673 181.49 328 208 328Z" fill="var(--flag-palette-white, #eeeeee)"/>
<path d="M200 160H216V192H200V160Z" fill="var(--flag-palette-gold, #ff9811)"/>
<path fill-rule="evenodd" clip-rule="evenodd" d="M248 208L240 216H176L168 208C168 195 186 184 208 184C230 184 248 195 248 208ZM136 192C140.418 192 144 195.582 144 200V208C144 212.418 140.418 216 136 216C131.582 216 128 212.418 128 208V200C128 195.582 131.582 192 136 192ZM280 192C284.418 192 288 195.582 288 200V208C288 212.418 284.418 216 280 216C275.582 216 272 212.418 272 208V200C272 195.582 275.582 192 280 192ZM208 272V296C208 302.365 210.529 308.47 215.029 312.971C219.53 317.471 225.635 320 232 320C238.365 320 244.47 317.471 248.971 312.971C253.471 308.47 256 302.365 256 296V272H232H208ZM208 272H160V224H208V272ZM242 242C242 236.477 237.523 232 232 232C226.477 232 222 236.477 222 242V254C222 259.523 226.477 264 232 264C237.523 264 242 259.523 242 254V242Z" fill="var(--flag-palette-bright-red, #d80027)"/>
<path fill-rule="evenodd" clip-rule="evenodd" d="M128 208H144C148.418 208 152 211.582 152 216C152 220.418 148.418 224 144 224H128C123.582 224 120 220.418 120 216C120 211.582 123.582 208 128 208ZM272 208H288C292.418 208 296 211.582 296 216C296 220.418 292.418 224 288 224H272C267.582 224 264 220.418 264 216C264 211.582 267.582 208 272 208ZM144 304H128C123.582 304 120 307.582 120 312C120 316.418 123.582 320 128 320H144C148.418 320 152 316.418 152 312C152 307.582 148.418 304 144 304ZM272 304H288C292.418 304 296 307.582 296 312C296 316.418 292.418 320 288 320H272C267.582 320 264 316.418 264 312C264 307.582 267.582 304 272 304ZM160 272V296C160 304 164 310 169 315L174 309L179 319C182.285 319.805 185.715 319.805 189 319L194 309L199 315C205 310 208 304 208 296V272H199L194 280L189 272H179L174 280L169 272H160ZM168 240V232H200V240H192V256H200V264H168V256H176V240H168ZM240 216H176V224H240V216Z" fill="var(--flag-palette-gold, #ff9811)"/>
<path d="M169 272V315C171.987 317.074 175.407 318.441 179 319V272H169ZM189 272V319C192.593 318.441 196.013 317.074 199 315V272H189Z" fill="var(--flag-palette-bright-red, #d80027)"/>
<path fill-rule="evenodd" clip-rule="evenodd" d="M186 208C189.314 208 192 205.314 192 202C192 198.686 189.314 196 186 196C182.686 196 180 198.686 180 202C180 205.314 182.686 208 186 208ZM208 208C211.314 208 214 205.314 214 202C214 198.686 211.314 196 208 196C204.686 196 202 198.686 202 202C202 205.314 204.686 208 208 208ZM236 202C236 205.314 233.314 208 230 208C226.686 208 224 205.314 224 202C224 198.686 226.686 196 230 196C233.314 196 236 198.686 236 202Z" fill="var(--flag-palette-yellow, #ffda44)"/>
<path fill-rule="evenodd" clip-rule="evenodd" d="M208 288C216.837 288 224 280.837 224 272C224 263.163 216.837 256 208 256C199.163 256 192 263.163 192 272C192 280.837 199.163 288 208 288ZM288 320H272C267.582 320 264 323.582 264 328C264 332.418 267.582 336 272 336H288C292.418 336 296 332.418 296 328C296 323.582 292.418 320 288 320ZM128 320H144C148.418 320 152 323.582 152 328C152 332.418 148.418 336 144 336H128C123.582 336 120 332.418 120 328C120 323.582 123.582 320 128 320Z" fill="var(--flag-palette-blue, #0052b4)"/>
<path d="M128 512L128 384L384 128L384 512L128 512Z" fill="var(--flag-palette-white, #eeeeee)"/>
<path d="M-6.29444e-06 512L144 368L144 512L-6.29444e-06 512Z" fill="var(--flag-palette-dark-green, #496e2d)"/>
<path fill-rule="evenodd" clip-rule="evenodd" d="M368 144L512 4.57764e-05L512 315.576L512 512L368 512L368 144Z" fill="var(--flag-palette-bright-red, #d80027)"/>
<path d="M256 277V287H268L278 265L256 277Z" fill="var(--flag-palette-dark-yellow, #ffc635)"/>
<path d="M351.999 242C351.999 267.461 341.884 291.878 323.881 309.882C305.877 327.885 281.46 338 255.999 338C233.86 338 212.509 330.352 195.479 316.52L203.305 308.693C218.234 320.49 236.78 327 255.999 327C278.542 327 300.163 318.045 316.104 302.105C332.044 286.164 340.999 264.543 340.999 242H351.999ZM308.999 261C310.999 259 314.999 259 316.999 261C318.999 263 318.999 267 315.999 269C300.999 283 281.999 291 261.999 293V310H249.999V293C241.377 292.138 232.941 290.16 224.931 287.067L233.601 278.398C240.9 280.736 248.449 282 255.999 282C275.683 281.938 294.615 274.437 308.999 261Z" fill="var(--flag-palette-dark-green, #496e2d)"/>
<path fill-rule="evenodd" clip-rule="evenodd" d="M216 303C228 311 242 316 256 316C271 316 285 311 297 303L290 294C270 307 242 307 222 294L216 303Z" fill="var(--flag-palette-light-blue, #338af3)"/>
<path d="M277.999 244L312.999 265L289.999 276L278.999 265V276L260.999 258L251.771 260.227L276.075 235.923L277.999 244ZM313.112 198.886C322.095 212.436 327.445 233.22 323.999 265C312.999 260 304.999 250 300.999 239L283.181 228.817L313.112 198.886Z" fill="var(--flag-palette-dark-brown, #584528)"/>
<path d="M216 315C220.418 315 224 318.582 224 323C224 327.418 220.418 331 216 331C211.582 331 208 327.418 208 323C208 318.582 211.582 315 216 315ZM297 315C301.418 315 305 318.582 305 323C305 327.418 301.418 331 297 331C292.582 331 289 327.418 289 323C289 318.582 292.582 315 297 315ZM324 294C328.418 294 332 297.582 332 302C332 306.418 328.418 310 324 310C319.582 310 316 306.418 316 302C316 297.582 319.582 294 324 294ZM341 267C345.418 267 349 270.582 349 275C349 279.418 345.418 283 341 283C336.582 283 333 279.418 333 275C333 270.582 336.582 267 341 267Z" fill="var(--flag-palette-dark-yellow, #ffc635)"/>
<path fill-rule="evenodd" clip-rule="evenodd" d="M250 299H262C268.075 299 273 303.925 273 310C273 316.075 268.075 321 262 321H250C243.925 321 239 316.075 239 310C239 303.925 243.925 299 250 299Z" fill="var(--flag-palette-gold, #ff9811)"/>
</svg>

<svg xmlns="http://www.w3.org/2000/svg" width="512" height="512" fill="none"><path fill="var(--flag-palette-yellow, #ffda44)" d="M512 128v256H0V128z"/><path fill="var(--flag-palette-bright-red, #d80027)" d="M512 368v144H0V368zm0-368v144H0V0z"/><path fill="var(--flag-palette-white, #eeeeee)" d="M144 304h-16v-80h16zm128 0h16v-80h-16z"/><path fill="var(--flag-palette-bright-red, #d80027)" d="M122 248a4 4 0 1 0 0 8h172a4 4 0 1 0 0-8zm0 24a4 4 0 1 0 0 8h28a4 4 0 1 0 0-8zm144 0a4 4 0 1 0 0 8h28a4 4 0 1 0 0-8z"/><path fill="var(--flag-palette-white, #eeeeee)" fill-rule="evenodd" d="M196 168c-7 0-13 5-15 11l-5-1c-9 0-16 7-16 16s7 16 16 16c7 0 13-4 15-11a16 16 0 0 0 17-4 16 16 0 0 0 17 4 16 16 0 1 0 10-20 16 16 0 0 0-27-5q-4.5-6-12-6m0 8c5 0 8 4 8 8 0 5-3 8-8 8-4 0-8-3-8-8 0-4 4-8 8-8m24 0c5 0 8 4 8 8 0 5-3 8-8 8-4 0-8-3-8-8 0-4 4-8 8-8m-44 10 4 1 4 8c0 4-4 7-8 7s-8-3-8-8c0-4 4-8 8-8m64 0c5 0 8 4 8 8 0 5-3 8-8 8-4 0-8-3-8-7l4-8zm-32 142c26.5 0 48-14.3 48-32 0-9.6-6.3-18.1-16.2-24H256v-48h-48v40c-26.5 0-48 14.3-48 32s21.5 32 48 32" clip-rule="evenodd"/><path fill="var(--flag-palette-gold, #ff9811)" d="M200 160h16v32h-16z"/><path fill="var(--flag-palette-bright-red, #d80027)" fill-rule="evenodd" d="m248 208-8 8h-64l-8-8c0-13 18-24 40-24s40 11 40 24m-112-16a8 8 0 0 1 8 8v8a8 8 0 0 1-16 0v-8a8 8 0 0 1 8-8m144 0a8 8 0 0 1 8 8v8a8 8 0 0 1-16 0v-8a8 8 0 0 1 8-8m-72 80v24a24 24 0 0 0 48 0v-24zm0 0h-48v-48h48zm34-30a10 10 0 1 0-20 0v12a10 10 0 1 0 20 0z" clip-rule="evenodd"/><path fill="var(--flag-palette-gold, #ff9811)" fill-rule="evenodd" d="M128 208h16a8 8 0 0 1 0 16h-16a8 8 0 0 1 0-16m144 0h16a8 8 0 0 1 0 16h-16a8 8 0 0 1 0-16m-128 96h-16a8 8 0 0 0 0 16h16a8 8 0 0 0 0-16m128 0h16a8 8 0 0 1 0 16h-16a8 8 0 0 1 0-16m-112-32v24c0 8 4 14 9 19l5-6 5 10q5 1.2 10 0l5-10 5 6c6-5 9-11 9-19v-24h-9l-5 8-5-8h-10l-5 8-5-8zm8-32v-8h32v8h-8v16h8v8h-32v-8h8v-16zm72-24h-64v8h64z" clip-rule="evenodd"/><path fill="var(--flag-palette-bright-red, #d80027)" d="M169 272v43q4.6 3 10 4v-47zm20 0v47q5.4-1 10-4v-43z"/><path fill="var(--flag-palette-yellow, #ffda44)" fill-rule="evenodd" d="M186 208a6 6 0 1 0 0-12 6 6 0 0 0 0 12m22 0a6 6 0 1 0 0-12 6 6 0 0 0 0 12m28-6a6 6 0 1 1-12 0 6 6 0 0 1 12 0" clip-rule="evenodd"/><path fill="var(--flag-palette-blue, #0052b4)" fill-rule="evenodd" d="M208 288a16 16 0 1 0 0-32 16 16 0 0 0 0 32m80 32h-16a8 8 0 0 0 0 16h16a8 8 0 0 0 0-16m-160 0h16a8 8 0 0 1 0 16h-16a8 8 0 0 1 0-16" clip-rule="evenodd"/><path fill="var(--flag-palette-white, #eeeeee)" d="M128 512V384l256-256v384z"/><path fill="var(--flag-palette-dark-green, #496e2d)" d="m0 512 144-144v144z"/><path fill="var(--flag-palette-bright-red, #d80027)" fill-rule="evenodd" d="M368 144 512 0v512H368z" clip-rule="evenodd"/><path fill="var(--flag-palette-dark-yellow, #ffc635)" d="M256 277v10h12l10-22z"/><path fill="var(--flag-palette-dark-green, #496e2d)" d="M352 242a96 96 0 0 1-156.5 74.5l7.8-7.8A85 85 0 0 0 341 242zm-43 19c2-2 6-2 8 0s2 6-1 8a92 92 0 0 1-54 24v17h-12v-17q-13-1.3-25-6l8.6-8.6A74 74 0 0 0 256 282a78 78 0 0 0 53-21"/><path fill="var(--flag-palette-light-blue, #338af3)" fill-rule="evenodd" d="M216 303c12 8 26 13 40 13 15 0 29-5 41-13l-7-9c-20 13-48 13-68 0z" clip-rule="evenodd"/><path fill="var(--flag-palette-dark-brown, #584528)" d="m278 244 35 21-23 11-11-11v11l-18-18-9.2 2.2L276 236zm35.1-45.1c9 13.5 14.3 34.3 10.9 66.1-11-5-19-15-23-26l-17.8-10.2z"/><path fill="var(--flag-palette-dark-yellow, #ffc635)" d="M216 315a8 8 0 1 1 0 16 8 8 0 0 1 0-16m81 0a8 8 0 1 1 0 16 8 8 0 0 1 0-16m27-21a8 8 0 1 1 0 16 8 8 0 0 1 0-16m17-27a8 8 0 1 1 0 16 8 8 0 0 1 0-16"/><path fill="var(--flag-palette-gold, #ff9811)" fill-rule="evenodd" d="M250 299h12a11 11 0 0 1 0 22h-12a11 11 0 0 1 0-22" clip-rule="evenodd"/></svg>
